X: 69
T: No_72_The_Badger_Woman_Speaks.krn
N: Derived from No_72_The_Badger_Woman_Speaks.krn
%%abc-version 2.0
%%abcx-abcm2ps-target-version 5.9.1 (29 Sep 2008)
%%abc-creator hum2abc beta
%%abcx-conversion-date 2019/03/15 08:25:36
%%humdrum-veritas 2047800457
%%humdrum-veritas-data 2791056429
%%linebreak <none>
%%barnumbers 0
L: 1/16
M: 2/4
K: G clef=bass
[K:clef=bass][M:2/4]E,E,E,2 E,2E,2 [I:setbarnb 2]| 
E,(E,2B,,) A,,A,,A,,2 | 
B,,2A,,2 G,,2E,,2 | 
[M:3/4]G,,G,,2E,, E,,E,,E,,E,, E,,2 z2 | 
[M:2/4](B,,A,,)(B,,A,,) A,,A,,A,,2 | 
(A,,G,,)G,,2 E,,E,,E,,2 | 
G,,(G,,2E,,) E,,2 z2 | 
[M:3/4]A,,A,,A,,2 B,,B,,2A,, G,,G,,E,,2 | 
[M:2/4]G,,E,,2E,, E,,2G,,2 | 
[M:3/4](G,,E,,2)E,, E,,2E,,E,, E,,2 z2 | 
[M:2/4](B,,G,,)G,,2 G,,2 z2 | 
[M:3/4](G,,E,,)E,,2 E,,E,,E,,2 E,,2 z2 :|]  
[M:5/8]A,A,A,4A,G,E, z | 
[M:3/4]A,2B,2A,4A,G,E,2 | 
[M:2/4]A,2A,2 E,3E, | 
[M:3/4]A,4(A,E,)D,2 C,2A,,2 | 
C,C,2A,, A,,A,,3 A,,G,,G,,F,, | 
A,,2A,,2 A,,2A,,2 A,,2 z2 |]  



